src/lib/packages/icons/src/assets/line/calendar-check.svg

<svg xmlns="http://www.w3.org/2000/svg" width="24" height="24" fill="none"><path fill="currentColor" d="M18 3.75h-1.25V3a.75.75 0 0 0-1.5 0v.75h-6.5V3a.75.75 0 0 0-1.5 0v.75H6c-2.418 0-3.75 1.332-3.75 3.75V18c0 2.418 1.332 3.75 3.75 3.75h12c2.418 0 3.75-1.332 3.75-3.75V7.5c0-2.418-1.332-3.75-3.75-3.75ZM6 5.25h1.25V6a.75.75 0 0 0 1.5 0v-.75h6.5V6a.75.75 0 0 0 1.5 0v-.75H18c1.577 0 2.25.673 2.25 2.25v.75H3.75V7.5c0-1.577.673-2.25 2.25-2.25Zm12 15H6c-1.577 0-2.25-.673-2.25-2.25V9.75h16.5V18c0 1.577-.673 2.25-2.25 2.25Zm-2.97-7.447a.75.75 0 0 1 0 1.061l-3.333 3.333a.748.748 0 0 1-1.06 0L8.97 15.53a.75.75 0 1 1 1.061-1.061l1.137 1.136 2.803-2.803a.749.749 0 0 1 1.059.001Z"/></svg>

<svg width="24" height="24" viewBox="0 0 24 24" fill="none" xmlns="http://www.w3.org/2000/svg">
<path d="M18 3.75H16.75V3C16.75 2.586 16.414 2.25 16 2.25C15.586 2.25 15.25 2.586 15.25 3V3.75H8.75V3C8.75 2.586 8.414 2.25 8 2.25C7.586 2.25 7.25 2.586 7.25 3V3.75H6C3.582 3.75 2.25 5.082 2.25 7.5V18C2.25 20.418 3.582 21.75 6 21.75H18C20.418 21.75 21.75 20.418 21.75 18V7.5C21.75 5.082 20.418 3.75 18 3.75ZM6 5.25H7.25V6C7.25 6.414 7.586 6.75 8 6.75C8.414 6.75 8.75 6.414 8.75 6V5.25H15.25V6C15.25 6.414 15.586 6.75 16 6.75C16.414 6.75 16.75 6.414 16.75 6V5.25H18C19.577 5.25 20.25 5.923 20.25 7.5V8.25H3.75V7.5C3.75 5.923 4.423 5.25 6 5.25ZM18 20.25H6C4.423 20.25 3.75 19.577 3.75 18V9.75H20.25V18C20.25 19.577 19.577 20.25 18 20.25ZM15.03 12.803C15.323 13.096 15.323 13.571 15.03 13.864L11.697 17.197C11.551 17.343 11.359 17.417 11.167 17.417C10.975 17.417 10.783 17.344 10.637 17.197L8.96997 15.53C8.67697 15.238 8.67697 14.762 8.96997 14.469C9.26297 14.176 9.73801 14.176 10.031 14.469L11.168 15.605L13.9709 12.802C14.2629 12.51 14.737 12.51 15.03 12.803Z" fill="currentColor"/>
</svg>
